X: 3
T: Pachelbel's Frolics
R: reel
M: 4/4
L: 1/8
K: Dmaj
d3 d2 efg|a3 a2 fed|B3c d3B|ABAG FGAF|GFGA BABc|dcde fgaf|gfed cdef|gece d4:||f~d3 f~d3|e~c3 e~c3|d~B3 d~B3|c~A3 c~A3|GFGA BABc|dcde fgaf|gfed cdef|gece d4:||


Tune 487	Setting 13397

